X:1
T:Volunteers, to the Front!
T:Volunteers, to the Front!
T:Pauline Gilmour Hatch, 1899
T:Mrs. E. E. Williams (1832-1895)
T:Public Domain Courtesy of the Cyber Hymnal™
T:Public Domain Courtesy of the Cyber Hymnal™
C:Pauline Gilmour Hatch, 1899
Z:Public Domain
Z:Courtesy of the Cyber Hymnal™
%%score ( 1 2 ) 3
L:1/8
Q:1/4=95
M:4/4
K:Ab
V:1 treble 
V:2 treble 
V:3 bass 
V:1
 [Ec]>[Ec] [Ec]>[=D=B] [F_d]2 [Ec]2 | [Fc]>[FB] [FB]>F [FB]4 | [DE]>[DB] [DB]>[D=A] [Dc]2 [DB]2 | %3
w: 1.~Vol- un- teers are want- ed!|hear the stir- ring call,|O be swift to an- swer,|
w: 2.~Vol- un- teers are want- ed!|val- iant men and true,|In the ranks, my bro- ther,|
w: 3.~Vol- un- teers are want- ed!|for on land and sea|Sa- tan’s starv- ing bond- men|
w: 4.~Vol- un- teers are want- ed!|on the bat- tle plain|Sol- diers brave are fall- ing,|
w: 5.~Vol- un- teers are want- ed!|let the ranks be filled;|Soon the din of bat- tle|
 [CB]>[CA] [B,G]>[B,F] [CE]4 | [Ec]>[Ec] [Ec]>[=D=B] [F_d]2 [Ec]2 | [Fc]>[FB] [FB]>F [FB]4 | %6
w: com- rades, one and all;|Gird- ing on your ar- mor,|haste to march a- way,|
w: there is room for you;|Christ is the com- man- der,|let us all o- bey|
w: cla- mor to be free;|Hast- en to their res- cue;|if you still de- lay|
w: ne’er to fight a- gain;|Who will take their plac- es|in the dead- ly fray?|
w: will in peace be stilled;|See! the clouds are lift- ing,|soon they’ll clear a- way;|
 [EG]>[EA] [GB]>[Ac] [GB]>[EG] [FA]>[GB] | [Ac]2 [A=d]2 [Ge]3 ||"^Refrain" [DE] | %9
w: For the Lord is call- ing, “to the|front to- day!”||
w: When He gives the or- der, “to the|front to- day!”||
w: Blood- bought souls must per- ish, to the|front to- day!|A-|
w: Who will march with Je- sus to the|front to- day?||
w: Glo- ry gilds the heights a- long the|front to- day.||
 [CE]2 [CF]>[CG] [CA]>[CG] [CA]>[DB] | [Ec]7/2 [=D=B]/ [Ec]3 [CE] | %11
w: ||
w: ||
w: way to the bat- tle- field, a-|way, a- way! The|
w: ||
w: ||
 [DE]2 [DF]>[DG] [CA]>[CA] [CG]>[CA] | [=Dc]7/2 [DB]/ [EB]4 | [=Ec]>[Ec] [Ec]>[EG] [FA]2 [FA]2 | %14
w: |||
w: |||
w: King calls for sol- diers in His|ranks to- day;|Hear the bu- gles call- ing,|
w: |||
w: |||
 [FA]>[FA] [FB]>[Fc] [Fe]2 [Fd]2 | [A=d]2 [Ad]>[Ad] [Ae]>[Ac] A>[Bd] | [GB]3 [EA] [EA]4 |] %17
w: |||
w: |||
w: in- to line be fall- ing,|Forth to the bat- tle- field, a-|way, a- way!|
w: |||
w: |||
V:2
 x8 | x7/2 F/ x4 | x8 | x8 | x8 | x7/2 F/ x4 | x8 | x7 || x | x8 | x8 | x8 | x8 | x8 | x8 | %15
 x6 A3/2 x/ | x8 |] %17
V:3
 [A,,A,]>[A,,A,] [A,,A,]>[A,,A,] [A,,A,]2 [A,,A,]2 | [D,A,]>[D,A,] [D,A,]>[D,A,] [D,A,]4 | %2
w: ~ ~ ~ ~ ~ ~|~ ~ ~ ~ ~|
 [E,G,]>[E,G,] [E,G,]>[E,^F,] [E,G,]2 [E,G,]2 | [A,,E,]>[A,,E,] [A,,=D,]>[A,,D,] [A,,E,]4 | %4
w: ~ ~ ~ ~ ~ ~|~ ~ ~ ~ ~|
 [A,,A,]>[A,,A,] [A,,A,]>[A,,A,] [A,,A,]2 [A,,A,]2 | [D,A,]>[D,A,] [D,A,]>[D,A,] [D,D]4 | %6
w: ~ ~ ~ ~ ~ ~|~ ~ ~ ~ ~|
 [E,B,]>[E,C] [E,E]>[E,E] [E,E]>[E,B,] [E,B,]>[E,E] | [A,E]2 [F,A,]2 [E,B,]3 || [E,G,] | %9
w: ~ ~ ~ ~ ~ ~ ~ ~|~ ~ ~|A-|
 [A,,A,]2 [A,,E,]2 [A,,E,]2 [A,,E,]>[A,,E,] | [A,,A,]>[A,,A,] [A,,A,]>[A,,A,] [A,,A,]3 [A,,A,] | %11
w: way, a- way to the|bat- tle- field, a- way, ~|
 [E,G,]2 [E,A,]>[E,B,] [F,A,]2 [F,A,]2 | [B,,A,]>[B,,A,] [B,,A,]>[B,,A,] [E,G,]4 | %13
w: ~ ~ ~ sol- diers|in HIs ranks to- day;|
 [C,G,]>[C,G,] [C,G,]>[C,C] [F,C]2 [F,C]2 | [D,D]>[D,D] [D,D]>[C,=A,] [=A,,C]2 [B,,B,]2 | %15
w: ||
 [_F,=B,]2 [F,B,]>[F,B,] [E,C]>[E,C] [=F,C]>[=B,,F] | [E,D]3 [E,C] [A,,C]4 |] %17
w: ||

